svg/design/brightness_line.svg

<?xml version="1.0" encoding="UTF-8"?>
<svg width="24px" height="24px" viewBox="0 0 24 24" version="1.1" xmlns="http://www.w3.org/2000/svg" xmlns:xlink="http://www.w3.org/1999/xlink">
    <title>brightness_line</title>
    <g id="页面-1" stroke="none" stroke-width="1" fill="none" fill-rule="evenodd">
        <g id="Design" fill-rule="nonzero">
            <g id="brightness_line">
                 <path d="M24,0 L24,24 L0,24 L0,0 L24,0 Z M12.5934901,23.257841 L12.5819402,23.2595131 L12.5108777,23.2950439 L12.4918791,23.2987469 L12.4918791,23.2987469 L12.4767152,23.2950439 L12.4056548,23.2595131 C12.3958229,23.2563662 12.3870493,23.2590235 12.3821421,23.2649074 L12.3780323,23.275831 L12.360941,23.7031097 L12.3658947,23.7234994 L12.3769048,23.7357139 L12.4804777,23.8096931 L12.4953491,23.8136134 L12.4953491,23.8136134 L12.5071152,23.8096931 L12.6106902,23.7357139 L12.6232938,23.7196733 L12.6232938,23.7196733 L12.6266527,23.7031097 L12.609561,23.275831 C12.6075724,23.2657013 12.6010112,23.2592993 12.5934901,23.257841 L12.5934901,23.257841 Z M12.8583906,23.1452862 L12.8445485,23.1473072 L12.6598443,23.2396597 L12.6498822,23.2499052 L12.6498822,23.2499052 L12.6471943,23.2611114 L12.6650943,23.6906389 L12.6699349,23.7034178 L12.6699349,23.7034178 L12.678386,23.7104931 L12.8793402,23.8032389 C12.8914285,23.8068999 12.9022333,23.8029875 12.9078286,23.7952264 L12.9118235,23.7811639 L12.8776777,23.1665331 C12.8752882,23.1545897 12.8674102,23.1470016 12.8583906,23.1452862 L12.8583906,23.1452862 Z M12.1430473,23.1473072 C12.1332178,23.1423925 12.1221763,23.1452606 12.1156365,23.1525954 L12.1099173,23.1665331 L12.0757714,23.7811639 C12.0751323,23.7926639 12.0828099,23.8018602 12.0926481,23.8045676 L12.108256,23.8032389 L12.3092106,23.7104931 L12.3186497,23.7024347 L12.3186497,23.7024347 L12.3225043,23.6906389 L12.340401,23.2611114 L12.337245,23.2485176 L12.337245,23.2485176 L12.3277531,23.2396597 L12.1430473,23.1473072 Z" id="MingCute" fill-rule="nonzero"></path>
                <path d="M12,19 C12.51285,19 12.9355092,19.386027 12.9932725,19.8833761 L13,20 L13,21 C13,21.5523 12.5523,22 12,22 C11.48715,22 11.0644908,21.613973 11.0067275,21.1166239 L11,21 L11,20 C11,19.4477 11.4477,19 12,19 Z M16.9498,16.9498 C17.3102615,16.5892462 17.8775207,16.5615112 18.2697973,16.8665953 L18.364,16.9498 L19.0711,17.6569 C19.4616,18.0474 19.4616,18.6805 19.0711,19.0711 C18.7106385,19.4315615 18.1433793,19.4592893 17.7511027,19.1542834 L17.6569,19.0711 L16.9498,18.364 C16.5593,17.9734 16.5593,17.3403 16.9498,16.9498 Z M7.0502,16.9498 C7.44072,17.3403 7.44072,17.9735 7.0502,18.364 L6.34309,19.0711 C5.95257,19.4616 5.3194,19.4616 4.92888,19.0711 C4.53835,18.6806 4.53835,18.0474 4.92888,17.6569 L5.6359825,16.9498 C6.02651,16.5592 6.65968,16.5592 7.0502,16.9498 Z M12,6 C15.3137,6 18,8.68629 18,12 C18,15.3137 15.3137,18 12,18 C8.68629,18 6,15.3137 6,12 C6,8.68629 8.68629,6 12,6 Z M12,8 C9.79086,8 8,9.79086 8,12 C8,14.2091 9.79086,16 12,16 L12,8 Z M4,11 C4.55228,11 5,11.4477 5,12 C5,12.5523 4.55228,13 4,13 L3,13 C2.44772,13 2,12.5523 2,12 C2,11.4477 2.44772,11 3,11 L4,11 Z M21,11 C21.5523,11 22,11.4477 22,12 C22,12.51285 21.613973,12.9355092 21.1166239,12.9932725 L21,13 L20,13 C19.4477,13 19,12.5523 19,12 C19,11.48715 19.386027,11.0644908 19.8833761,11.0067275 L20,11 L21,11 Z M6.34312,4.92888 L7.05023,5.63599 C7.44075,6.02651 7.44075,6.65968 7.05023,7.0502 C6.6597,7.44072 6.02654,7.44072 5.6360125,7.0502 L4.92891,6.34309 C4.53838,5.95257 4.53838,5.3194 4.92891,4.92888 C5.31943,4.53836 5.9526,4.53836 6.34312,4.92888 Z M17.6569,4.9289 C18.0474,4.53837 18.6805,4.53837 19.0711,4.9289 C19.4315615,5.28938 19.4592893,5.85661503 19.1542834,6.2489035 L19.0711,6.34311 L18.364,7.05022 C17.9734,7.44074 17.3403,7.44074 16.9498,7.05022 C16.5892462,6.68973077 16.5615112,6.12250355 16.8665953,5.73021044 L16.9498,5.6360025 L17.6569,4.9289 Z M12,2 C12.51285,2 12.9355092,2.38604429 12.9932725,2.88337975 L13,3 L13,4 C13,4.55228 12.5523,5 12,5 C11.48715,5 11.0644908,4.61395571 11.0067275,4.11662025 L11,4 L11,3 C11,2.44772 11.4477,2 12,2 Z" id="形状" fill="#09244B"></path>
            </g>
        </g>
    </g>
</svg>

<svg xmlns="http://www.w3.org/2000/svg" width="24" height="24"><g fill="none" fill-rule="nonzero"><path d="M24 0v24H0V0h24ZM12.593 23.258l-.011.002-.071.035-.02.004-.014-.004-.071-.035c-.01-.004-.019-.001-.024.005l-.004.01-.017.428.005.02.01.013.104.074.015.004.012-.004.104-.074.012-.016.004-.017-.017-.427c-.002-.01-.009-.017-.017-.018Zm.265-.113-.013.002-.185.093-.01.01-.003.011.018.43.005.012.008.007.201.093c.012.004.023 0 .029-.008l.004-.014-.034-.614c-.003-.012-.01-.02-.02-.022Zm-.715.002a.023.023 0 0 0-.027.006l-.006.014-.034.614c0 .012.007.02.017.024l.015-.002.201-.093.01-.008.004-.011.017-.43-.003-.012-.01-.01-.184-.092Z"/><path fill="#09244B" d="M12 19a1 1 0 0 1 .993.883L13 20v1a1 1 0 0 1-1.993.117L11 21v-1a1 1 0 0 1 1-1Zm4.95-2.05a1 1 0 0 1 1.32-.083l.094.083.707.707a1 1 0 0 1-1.32 1.497l-.094-.083-.707-.707a1 1 0 0 1 0-1.414Zm-9.9 0a1 1 0 0 1 0 1.414l-.707.707a1 1 0 0 1-1.414-1.414l.707-.707a1 1 0 0 1 1.414 0ZM12 6a6 6 0 1 1 0 12 6 6 0 0 1 0-12Zm0 2a4 4 0 1 0 0 8V8Zm-8 3a1 1 0 1 1 0 2H3a1 1 0 1 1 0-2h1Zm17 0a1 1 0 0 1 .117 1.993L21 13h-1a1 1 0 0 1-.117-1.993L20 11h1ZM6.343 4.929l.707.707A1 1 0 0 1 5.636 7.05l-.707-.707A1 1 0 1 1 6.343 4.93Zm11.314 0a1 1 0 0 1 1.497 1.32l-.083.094-.707.707a1 1 0 0 1-1.497-1.32l.083-.094.707-.707ZM12 2a1 1 0 0 1 .993.883L13 3v1a1 1 0 0 1-1.993.117L11 4V3a1 1 0 0 1 1-1Z"/></g></svg>
